X: 116
T:The Ballydesmond Polkas No 2/ Maurice Manley's
N: page 39
N: heptatonic
N: matches 211
R: polka
S:via PR
M:2/4
L:1/8
K:Ador
Q:1/4=60
"Am"EA AB|cd eg|"G"GG/F/ GA|GE ED|"Am"EA AB|cd ef|"G"(3gfe dB|"Am"A2 A2::
"Am"ea a>b|ag "D"ef|"G"gg/f/ ga|ge ed|"Am"ea a>b|"Am"ag "D"ef|"G" (3gfe dB|"Am"A2 A2:|
